X:1
T:Title
%%score { ( 1 4 ) | ( 2 3 ) }
L:1/8
Q:1/4=112
M:3/4
K:C
V:1 treble nm="Grand Piano"
V:4 treble 
V:2 bass 
V:3 bass 
V:1
 [Ec]2 E2 F2 | [G,EG]2 A2 [A,^CE]2 | [EG]6 | F4 z2 | F2 d2 c2 | B2 A2 B2 | [Ec]6- | [Ec]4 z2 | %8
w: John~R.~Sweney * *||||||||
 [EG]2 e2 c2 | E2 F2 G2 | B6 | [FA]4 z2 | [EG]2 E2 c2 | B2 z2 d2 | [Ec]6- |[M:2/4] [Ec]4 | %16
w: ||||||||
[M:1/4] d>d |[M:3/4] d4 [Ec]2 | [DB]2 A2 B2 | c4- [Fc-]2 | [Ec]4 E>E | z2 z2 B2 | [Ec]4 [Ad]2 | %23
w: |||||||
 e6- |[M:2/4] e4 |[M:1/4] [Ge]2 |[M:3/4] [Ge]2 [Fd]2 [G^c]2 | [Fd]4 [Fd]2 | d2 c2 B2 | [Ec]4 z2 | %30
w: |||||||
 E2 FG AB | c2 G2 [Ge]2 | d2 A2 B2 |[M:2/4] [Ec]4 |] %34
w: ||||
V:2
 [C,G,]2 C2 D2 | C,2 F2 A,,2 | D,2 A,2 A,,2 | [D,D]4 z2 | D2 z2 z2 | [G,,G,]4 F2 | C,2 G,2 E,2 | %7
 C,4 z2 | z2[K:treble] G2 E2 | C2 D2[K:treble] E2 | G6[K:bass] | C4 z2 | z2 C2 E2 | %13
 z2[K:treble] G2 F2 | C,2 G,2 E,2 |[M:2/4] C,4 |[M:1/4][K:treble] F>F |[M:3/4] F4 G,G, | %18
 z2 F2 [G,F]2 | [C,G,]4 [F,A,]2 | [C,G,]4 z2 | C2 C2 E-[E,E] | A,2 A,2 [F,A,]2 | [E,B,]4 [A,C]2 | %24
[M:2/4] [E,B,]4 |[M:1/4] [C,C]2 |[M:3/4] [C,C]2 [F,A,]2 [E,A,]2 | [D,A,]4 [D,A,]2 | %28
 [G,B,F]2 [G,E]2[K:bass] [G,D]2 | [C,G,]4 z2 | E,2 F,G, A,B, | C2 G,2 [C,C]2 | %32
 [F,F]2- [F,DF]2 [G,F]2 |[M:2/4][K:bass] [C,G,]4 |] %34
V:3
 x6 | x6 | x6 | x6 | [G,B,]2- [G,B,F]2 E2 | x6 | x6 | x6 | [C,C]4[K:treble] z2 | %9
 [C,G,]4[K:treble] z2 | z2[K:bass] F,2 A,2 | x6 | C,4 z2 | G,,4[K:treble] z2 | x6 |[M:2/4] x4 | %16
[M:1/4][K:treble] x2 |[M:3/4] x6 | G,4 z2 | x6 | x6 | z2 z2 .[E,^G,]2 | x6 | x6 |[M:2/4] x4 | %25
[M:1/4] x2 |[M:3/4] x6 | x6 | x4[K:bass] x2 | x6 | x6 | x6 | A,2 z2 z2 |[M:2/4][K:bass] x4 |] %34
V:4
 x6 | x6 | x6 | x6 | x6 | D4 z2 | x6 | x6 | x6 | x6 | x6 | x6 | x6 | F4 z2 | x6 |[M:2/4] x4 | %16
[M:1/4] x2 |[M:3/4] x6 | x6 | E4 z2 | x6 | A2 A2 z ^G, | x6 | ^G4 A2 |[M:2/4] ^G4 |[M:1/4] x2 | %26
[M:3/4] x6 | x6 | x6 | x6 | x6 | x6 | x6 |[M:2/4] x4 |] %34

